X: 62
T: Ung grand povre homme
N: Derived from Bus3058-Ung_grand_povre_homme.krn
C: Antoine Busnoys
%%abc-version 2.0
%%abcx-abcm2ps-target-version 5.9.1 (29 Sep 2008)
%%abc-creator hum2abc beta
%%abcx-conversion-date 2019/02/16 20:26:07
%%abc-edited-by Jesse Rodin
%%abc-edited-by Chris Gage 04-22-2015
%%abcx-initial-encoding-date 2016/02/08/
%%humdrum-veritas 4232794966
%%humdrum-veritas-data 2243705180
%%linebreak <none>
%%barnumbers 0
L: 1/4
M: 2/1
Q: 1/2=120
V: 1 clef=treble
V: 2 clef=treble-8
V: 3 clef=treble-8
K: C
[V:1] c8 | 
[V:2] f8 | 
[V:3] F8 | 
[V:1] A4A4 | 
[V:2] f6e2 | 
[V:3] F4F4 | 
[V:1] B4B4 | 
[V:2] d4d4 | 
[V:3] G4G4 | 
[V:1] c6B2 | 
[V:2] c6d2 | 
[V:3] A2A4GF | 
[V:1] G4A2A2- | 
[V:2] e4f4 | 
[V:3] E4D2F2- | 
[V:1] A2F2E4 | 
[V:2] d4c4 | 
[V:3] F2G2C4 | 
[V:1] F2G3FED | 
[V:2] A2_B2G2c2- | 
[V:3] D2_B,2C4 | 
[V:1] E2D2C2A2 | 
[V:2] c2B2c2A2 | 
[V:3] G4A2F2 | 
[V:1] _BAGFE3D | 
[V:2] F4G4 | 
[V:3] D4C4 | 
[V:1] F8- | 
[V:2] F8 | 
[V:3] z4c4 | 
[V:1] F8 | 
[V:2] z4F3G | 
[V:3] d4A3B | 
[V:1] z4G4 | 
[V:2] A2_B4AG | 
[V:3] c2d4e2 | 
[V:1] A4A4 | 
[V:2] F8 | 
[V:3] f6ed | 
[V:1] G4B4 | 
[V:2] z4G4 | 
[V:3] e6d2 | 
[V:1] A2c4BA | 
[V:2] A4A4 | 
[V:3] c2e4dc | 
[V:1] B4d4 | 
[V:2] G4B4 | 
[V:3] d4G4 | 
[V:1] e2e4c2 | 
[V:2] A2c4BA | 
[V:3] C8 | 
[V:1] d4e4- | 
[V:2] G4g4 | 
[V:3] z4C4 | 
[V:1] e2c2c4- | 
[V:2] c4e4 | 
[V:3] G4c4 | 
[V:1] c4B4 | 
[V:2] d8 | 
[V:3] G8 | 
[V:1] c8 | 
[V:2] z4c4- | 
[V:3] c4F4- | 
[V:1] z4A4 | 
[V:2] c4f4 | 
[V:3] F4F4 | 
[V:1] A6G2 | 
[V:2] f6e2 | 
[V:3] F6C2 | 
[V:1] F4_B4- | 
[V:2] d4d4 | 
[V:3] D8 | 
[V:1] B2A2A4- | 
[V:2] c4A4 | 
[V:3] F8 | 
[V:1] A4G4 | 
[V:2] _B8 | 
[V:3] E8 | 
[V:1] A4G2A2- | 
[V:2] A2F2E3F | 
[V:3] F4G2F2 | 
[V:1] ABc2B2A2 | 
[V:2] G2A2G3A | 
[V:3] E2C2G2F2 | 
[V:1] G2E2F3G | 
[V:2] B2c4B2 | 
[V:3] E2C2D4 | 
[V:1] E8- | 
[V:2] c8- | 
[V:3] C8- | 
[V:1] E8 | 
[V:2] c8 | 
[V:3] C8 | 
[V:1] z8 | 
[V:2] g6e2 | 
[V:3] e6c2 | 
[V:1] z8 | 
[V:2] f2a4gf | 
[V:3] d8 | 
[V:1] G6E2 | 
[V:2] e2c4e2 | 
[V:3] c4C4 | 
[V:1] F2A4GF | 
[V:2] d2f4ed | 
[V:3] D8 | 
[V:1] E2G4FE | 
[V:2] c2e4dc | 
[V:3] E4C4 | 
[V:1] D2F4ED | 
[V:2] B4B4 | 
[V:3] D8 | 
[V:1] E4C4 | 
[V:2] c4e4 | 
[V:3] C8 | 
[V:1] D4F4 | 
[V:2] d8 | 
[V:3] F4D4 | 
[V:1] E4G4- | 
[V:2] c4G4 | 
[V:3] E8 | 
[V:1] G2F2E4 | 
[V:2] A2B2c4- | 
[V:3] C8 | 
[V:1] D8 | 
[V:2] c4B4 | 
[V:3] G8 | 
[V:1] C4z4 | 
[V:2] c6d2 | 
[V:3] A6B2 | 
[V:1] c4d4 | 
[V:2] e4f2g2- | 
[V:3] c4B4 | 
[V:1] e4c2d2- | 
[V:2] g2a4f2 | 
[V:3] c4A2B2- | 
[V:1] dcc4B2 | 
[V:2] g2e2d4 | 
[V:3] B2c2G4 | 
[V:1] c8 | 
[V:2] c8- | 
[V:3] A2GFE2F2- | 
[V:1] z4c4 | 
[V:2] c8 | 
[V:3] F2EDC4 | 
[V:1] F4G4 | 
[V:2] z4c4 | 
[V:3] D4E4 | 
[V:1] A4_BAGF | 
[V:2] F4G3A | 
[V:3] D4z4 | 
[V:1] GFEDC3D | 
[V:2] _B4A2F2 | 
[V:3] E4F4 | 
[V:1] E2F3GA2 | 
[V:2] G2A3Bc2- | 
[V:3] E2D2F4 | 
[V:1] G2c4B2 | 
[V:2] c2e2d4 | 
[V:3] E2C2G4 | 
[V:1] c3Bc2d2- | 
[V:2] c3de2f2 | 
[V:3] C4A2F2 | 
[V:1] dcBAG2c2 | 
[V:2] d4e4 | 
[V:3] G4E4 | 
[V:1] d2e3cf2- | 
[V:2] f2g3fa2- | 
[V:3] D2C2G2F2- | 
[V:1] fedcB2e2- | 
[V:2] agfed2c2 | 
[V:3] F4G2A2 | 
[V:1] edc4B2 | 
[V:2] e4d4 | 
[V:3] c4G4 | 
[V:1] c3BG2A2 | 
[V:2] c2A2B2A2 | 
[V:3] A2F2E2F2 | 
[V:1] _BAGFE3D | 
[V:2] F4G4 | 
[V:3] D4C4 | 
[V:1] F8 |]  
[V:2] F8 |]  
[V:3] c8 |]  



